Papirus/48x48/mimetypes/application-x.allegorithmic.substance.svg

<svg width="48" height="48" version="1.1" xmlns="http://www.w3.org/2000/svg">
 <path d="m10 5c-1.108 0-2 0.892-2 2v36c0 1.108 0.892 2 2 2h28c1.108 0 2-0.892 2-2v-26l-12-12z" style="opacity:.2"/>
 <path d="m10 4c-1.108 0-2 0.892-2 2v36c0 1.108 0.892 2 2 2h28c1.108 0 2-0.892 2-2v-26l-10-2-2-10z" style="fill:#53b848"/>
 <path d="m40 17-12-12v10c0 1.108 0.892 2 2 2z" style="opacity:.2"/>
 <path d="m40 16-12-12v10c0 1.108 0.892 2 2 2z" style="fill:#69d65d"/>
 <path d="m10 4c-1.108 0-2 0.892-2 2v1c0-1.108 0.892-2 2-2h18v-1z" style="fill:#ffffff;opacity:.2"/>
 <path d="M 19.025391,23.488281 15,25.5 v 4 l 4,1.333984 V 24 c 0,-0.173125 0.0084,-0.343225 0.02539,-0.511719 z m 9.949218,0 C 28.991619,23.656775 29,23.826875 29,24 v 3.5 1.5 l 4,1.333984 V 25.5 Z M 29,30.166016 V 32 c 0,2.77 -2.23,5 -5,5 -2.187557,0 -4.01762,-1.4004 -4.699219,-3.349609 L 19,33.5 V 32 L 15,30.666016 V 35.5 l 9,4.5 9,-4.5 v -4 z" style="opacity:.2"/>
 <path d="M 19.300781,22.349609 15,24.5 v 4 l 4,1.333984 V 24 c 0,-0.582443 0.119304,-1.131409 0.300781,-1.650391 z m 9.398438,0 C 28.880696,22.868591 29,23.417557 29,24 v 2.5 1.5 l 4,1.333984 V 24.5 Z M 29,29.166016 V 32 c 0,2.77 -2.23,5 -5,5 -2.596212,0 -4.718582,-1.959859 -4.974609,-4.486328 v -0.002 L 19,32.5 V 32 31 L 15,29.666016 V 34.5 l 9,4.5 9,-4.5 v -4 z" style="fill:#ffffff"/>
 <path d="m22 4v16c0 1.1 0.895 2 2 2s2-0.9 2-2v-16z" style="opacity:.2"/>
 <path d="m24 4v1h1v-1zm0 1h-1v1h1zm0 1v1h1v-1zm0 1h-1v1h1zm0 1v1h1v-1zm0 1h-1v1h1zm0 1v1h1v-1zm0 1h-1v1h1zm0 1v1h1v-1zm0 1h-1v1h1zm0 1v1h1v-1zm0 1h-1v1h1zm0 1v1h1v-1zm0 1h-1v1h1zm0 1v1h1v-1zm0 1h-1v1h1zm0 1v1c0.552 0 1-0.5 1-1z" style="opacity:.2"/>
 <path d="m23 4v1h1v-1zm0 2v1h1v-1zm0 2v1h1v-1zm0 2v1h1v-1zm0 2v1h1v-1zm0 2v1h1v-1zm0 2v1h1v-1zm0 2v1h1v-1zm0 2c0 0.5 0.448 1 1 1v-1z" style="fill:#dddddd"/>
 <path d="m24 21c-2.21 0-4 1.8-4 4v8c0 2.2 1.79 4 4 4s4-1.8 4-4v-8c0-2.2-1.79-4-4-4zm0 2c1.104 0 2 0.8 2 2 0 1-0.896 2-2 2s-2-1-2-2c0-1.2 0.896-2 2-2zm0 6c1.104 0 2 0.8 2 2v2c0 1-0.896 2-2 2s-2-1-2-2v-2c0-1.2 0.896-2 2-2z" style="opacity:.2"/>
 <path d="m24 20c-2.21 0-4 1.8-4 4v8c0 2.2 1.79 4 4 4s4-1.8 4-4v-8c0-2.2-1.79-4-4-4zm0 2c1.104 0 2 0.8 2 2 0 1-0.896 2-2 2s-2-1-2-2c0-1.2 0.896-2 2-2zm0 6c1.104 0 2 0.8 2 2v2c0 1-0.896 2-2 2s-2-1-2-2v-2c0-1.2 0.896-2 2-2z" style="fill:#dddddd"/>
</svg>

<svg xmlns="http://www.w3.org/2000/svg" width="48" height="48" version="1">
 <path style="opacity:0.2" d="M 10,5 C 8.892,5 8,5.892 8,7 v 36 c 0,1.108 0.892,2 2,2 h 28 c 1.108,0 2,-0.892 2,-2 V 17 L 29,16 28,5 Z"/>
 <path style="fill:#53b848" d="M 10,4 C 8.892,4 8,4.892 8,6 V 42 C 8,43.108 8.892,44 10,44 H 38 C 39.108,44 40,43.108 40,42 V 16 L 29,15 28,4 Z"/>
 <path fill="#fff" opacity=".2" d="m10 4c-1.108 0-2 0.892-2 2v1c0-1.108 0.892-2 2-2h18l11 11h1l-12-12z"/>
 <path style="opacity:0.2" d="m 28,5 v 10 c 0,1.1046 0.89543,2 2,2 h 10 z"/>
 <path style="fill:#69d65d" d="M 28,4 V 14 C 28,15.105 28.895,16 30,16 H 40 Z"/>
 <path style="opacity:0.2" d="m 22,4 v 16 c 0,1.1 0.895,2 2,2 1.105,0 2,-0.9 2,-2 V 4 Z"/>
 <path style="opacity:0.2" d="m 24,4 v 1 h 1 V 4 Z m 0,1 h -1 v 1 h 1 z m 0,1 v 1 h 1 V 6 Z m 0,1 h -1 v 1 h 1 z m 0,1 v 1 h 1 V 8 Z m 0,1 h -1 v 1 h 1 z m 0,1 v 1 h 1 v -1 z m 0,1 h -1 v 1 h 1 z m 0,1 v 1 h 1 v -1 z m 0,1 h -1 v 1 h 1 z m 0,1 v 1 h 1 v -1 z m 0,1 h -1 v 1 h 1 z m 0,1 v 1 h 1 v -1 z m 0,1 h -1 v 1 h 1 z m 0,1 v 1 h 1 v -1 z m 0,1 h -1 v 1 h 1 z m 0,1 v 1 c 0.552,0 1,-0.5 1,-1 z"/>
 <path style="fill:#dddddd" d="m 23,4 v 1 h 1 V 4 Z m 0,2 v 1 h 1 V 6 Z m 0,2 v 1 h 1 V 8 Z m 0,2 v 1 h 1 v -1 z m 0,2 v 1 h 1 v -1 z m 0,2 v 1 h 1 v -1 z m 0,2 v 1 h 1 v -1 z m 0,2 v 1 h 1 v -1 z m 0,2 c 0,0.5 0.448,1 1,1 v -1 z"/>
 <path style="opacity:0.2" d="m 24,21 c -2.21,0 -4,1.8 -4,4 v 8 c 0,2.2 1.79,4 4,4 2.21,0 4,-1.8 4,-4 v -8 c 0,-2.2 -1.79,-4 -4,-4 z m 0,2 c 1.104,0 2,0.8 2,2 0,1 -0.896,2 -2,2 -1.104,0 -2,-1 -2,-2 0,-1.2 0.896,-2 2,-2 z m 0,6 c 1.104,0 2,0.8 2,2 v 2 c 0,1 -0.896,2 -2,2 -1.104,0 -2,-1 -2,-2 v -2 c 0,-1.2 0.896,-2 2,-2 z"/>
 <path style="fill:#dddddd" d="M 24,20 C 21.79,20 20,21.8 20,24 V 32 C 20,34.2 21.79,36 24,36 26.21,36 28,34.2 28,32 V 24 C 28,21.8 26.21,20 24,20 Z M 24,22 C 25.104,22 26,22.8 26,24 26,25 25.104,26 24,26 22.896,26 22,25 22,24 22,22.8 22.896,22 24,22 Z M 24,28 C 25.104,28 26,28.8 26,30 V 32 C 26,33 25.104,34 24,34 22.896,34 22,33 22,32 V 30 C 22,28.8 22.896,28 24,28 Z"/>
 <path style="opacity:0.2" d="M 19.301,23.35 15,25.5 V 29.5 L 19,30.834 V 25 C 19,24.418 19.119,23.869 19.301,23.35 Z M 28.699,23.35 C 28.881,23.869 29,24.418 29,25 V 27.5 29 L 33,30.334 V 25.5 Z M 29,30.166 V 33 C 29,35.77 26.77,38 24,38 21.404,38 19.281,36.04 19.025,33.514 V 33.512 L 19,33.5 V 33 32 L 15,30.666 V 35.5 L 24,40 33,35.5 V 31.5 Z"/>
 <path style="fill:#ffffff" d="M 19.301,22.35 15,24.5 V 28.5 L 19,29.834 V 24 C 19,23.418 19.119,22.869 19.301,22.35 Z M 28.699,22.35 C 28.881,22.869 29,23.418 29,24 V 26.5 28 L 33,29.334 V 24.5 Z M 29,29.166 V 32 C 29,34.77 26.77,37 24,37 21.404,37 19.281,35.04 19.025,32.514 V 32.512 L 19,32.5 V 32 31 L 15,29.666 V 34.5 L 24,39 33,34.5 V 30.5 Z"/>
</svg>
